src/user-cross.svg

<svg width="24" height="24" viewBox="0 0 24 24" fill="none" xmlns="http://www.w3.org/2000/svg">
  <circle cx="10" cy="9" r="4" stroke="#515C6C" stroke-width="1.5"/>
  <path d="M4 18C4 15.2386 6.68629 13 10 13C11.5367 13 12.9385 13.4814 14 14.2732" stroke="#515C6C" stroke-width="1.5" stroke-linecap="round"/>
  <mask id="path-3-outside-1_914_937" maskUnits="userSpaceOnUse" x="11" y="11" width="10" height="10" fill="black">
    <rect fill="white" x="11" y="11" width="10" height="10"/>
    <path d="M16 12C18.2091 12 20 13.7909 20 16C20 18.2091 18.2091 20 16 20C13.7909 20 12 18.2091 12 16C12 13.7909 13.7909 12 16 12ZM17.4824 14.5166C17.3457 14.3805 17.1345 14.3633 16.9795 14.4658L16.917 14.5166L15.999 15.4336L15.083 14.5166L15.0195 14.4658C14.8644 14.3638 14.6531 14.3802 14.5166 14.5166C14.3802 14.6531 14.3638 14.8644 14.4658 15.0195L14.5166 15.083L15.4336 15.999L14.5166 16.917C14.3609 17.073 14.3612 17.3262 14.5166 17.4824C14.6532 17.6188 14.8644 17.6363 15.0195 17.5342L15.083 17.4824L15.999 16.5654L16.917 17.4824L16.9795 17.5342C17.1347 17.6365 17.3458 17.619 17.4824 17.4824C17.619 17.3458 17.6365 17.1347 17.5342 16.9795L17.4824 16.917L16.5654 15.999L17.4824 15.083C17.6385 14.9269 17.6384 14.6728 17.4824 14.5166Z"/>
  </mask>
  <path d="M16 12C18.2091 12 20 13.7909 20 16C20 18.2091 18.2091 20 16 20C13.7909 20 12 18.2091 12 16C12 13.7909 13.7909 12 16 12ZM17.4824 14.5166C17.3457 14.3805 17.1345 14.3633 16.9795 14.4658L16.917 14.5166L15.999 15.4336L15.083 14.5166L15.0195 14.4658C14.8644 14.3638 14.6531 14.3802 14.5166 14.5166C14.3802 14.6531 14.3638 14.8644 14.4658 15.0195L14.5166 15.083L15.4336 15.999L14.5166 16.917C14.3609 17.073 14.3612 17.3262 14.5166 17.4824C14.6532 17.6188 14.8644 17.6363 15.0195 17.5342L15.083 17.4824L15.999 16.5654L16.917 17.4824L16.9795 17.5342C17.1347 17.6365 17.3458 17.619 17.4824 17.4824C17.619 17.3458 17.6365 17.1347 17.5342 16.9795L17.4824 16.917L16.5654 15.999L17.4824 15.083C17.6385 14.9269 17.6384 14.6728 17.4824 14.5166Z" fill="#515C6C"/>
  <path d="M17.4824 14.5166L18.19 13.81L18.1879 13.8079L17.4824 14.5166ZM16.9795 14.4658L16.428 13.6317L16.387 13.6587L16.3489 13.6897L16.9795 14.4658ZM16.917 14.5166L16.2864 13.7405L16.2466 13.7728L16.2103 13.8091L16.917 14.5166ZM15.999 15.4336L15.2915 16.1403L15.9983 16.8478L16.7058 16.1411L15.999 15.4336ZM15.083 14.5166L15.7905 13.8099L15.7512 13.7705L15.7077 13.7357L15.083 14.5166ZM15.0195 14.4658L15.6442 13.685L15.6079 13.6559L15.569 13.6303L15.0195 14.4658ZM14.5166 14.5166L13.8096 13.8093L13.8093 13.8097L14.5166 14.5166ZM14.4658 15.0195L13.6302 15.5689L13.6558 15.6078L13.685 15.6442L14.4658 15.0195ZM14.5166 15.083L13.7357 15.7077L13.7705 15.7512L13.8099 15.7905L14.5166 15.083ZM15.4336 15.999L16.1411 16.7058L16.8478 15.9983L16.1403 15.2915L15.4336 15.999ZM14.5166 16.917L13.8091 16.2103L13.8088 16.2105L14.5166 16.917ZM14.5166 17.4824L13.8079 18.1879L13.81 18.19L14.5166 17.4824ZM15.0195 17.5342L15.5694 18.3694L15.612 18.3414L15.6515 18.3092L15.0195 17.5342ZM15.083 17.4824L15.7149 18.2574L15.7545 18.2252L15.7905 18.1892L15.083 17.4824ZM15.999 16.5654L16.7058 15.8579L15.9983 15.1512L15.2915 15.8587L15.999 16.5654ZM16.917 17.4824L16.2103 18.1899L16.2433 18.2229L16.2792 18.2526L16.917 17.4824ZM16.9795 17.5342L16.3417 18.3044L16.3836 18.3391L16.429 18.369L16.9795 17.5342ZM17.4824 17.4824L18.1893 18.1897L18.1897 18.1894L17.4824 17.4824ZM17.5342 16.9795L18.3691 16.429L18.3391 16.3836L18.3044 16.3417L17.5342 16.9795ZM17.4824 16.917L18.2526 16.2792L18.2229 16.2433L18.1899 16.2103L17.4824 16.917ZM16.5654 15.999L15.8587 15.2915L15.1512 15.9983L15.8579 16.7058L16.5654 15.999ZM17.4824 15.083L18.1892 15.7905L18.1897 15.79L17.4824 15.083ZM16 12V13C17.6569 13 19 14.3431 19 16H20H21C21 13.2386 18.7614 11 16 11V12ZM20 16H19C19 17.6569 17.6569 19 16 19V20V21C18.7614 21 21 18.7614 21 16H20ZM16 20V19C14.3431 19 13 17.6569 13 16H12H11C11 18.7614 13.2386 21 16 21V20ZM12 16H13C13 14.3431 14.3431 13 16 13V12V11C13.2386 11 11 13.2386 11 16H12ZM17.4824 14.5166L18.1879 13.8079C17.7093 13.3315 16.9721 13.2719 16.428 13.6317L16.9795 14.4658L17.531 15.3C17.297 15.4547 16.982 15.4294 16.777 15.2253L17.4824 14.5166ZM16.9795 14.4658L16.3489 13.6897L16.2864 13.7405L16.917 14.5166L17.5476 15.2927L17.6101 15.2419L16.9795 14.4658ZM16.917 14.5166L16.2103 13.8091L15.2923 14.7261L15.999 15.4336L16.7058 16.1411L17.6237 15.2241L16.917 14.5166ZM15.999 15.4336L16.7065 14.7269L15.7905 13.8099L15.083 14.5166L14.3755 15.2233L15.2915 16.1403L15.999 15.4336ZM15.083 14.5166L15.7077 13.7357L15.6442 13.685L15.0195 14.4658L14.3948 15.2467L14.4583 15.2975L15.083 14.5166ZM15.0195 14.4658L15.569 13.6303C15.0291 13.2753 14.2912 13.328 13.8096 13.8093L14.5166 14.5166L15.2236 15.2239C15.015 15.4323 14.6996 15.4523 14.4701 15.3014L15.0195 14.4658ZM14.5166 14.5166L13.8093 13.8097C13.328 14.2913 13.2753 15.0291 13.6302 15.5689L14.4658 15.0195L15.3014 14.4702C15.4523 14.6996 15.4324 15.0149 15.2239 15.2235L14.5166 14.5166ZM14.4658 15.0195L13.685 15.6442L13.7357 15.7077L14.5166 15.083L15.2975 14.4583L15.2467 14.3948L14.4658 15.0195ZM14.5166 15.083L13.8099 15.7905L14.7269 16.7065L15.4336 15.999L16.1403 15.2915L15.2233 14.3755L14.5166 15.083ZM15.4336 15.999L14.7261 15.2923L13.8091 16.2103L14.5166 16.917L15.2241 17.6237L16.1411 16.7058L15.4336 15.999ZM14.5166 16.917L13.8088 16.2105C13.2625 16.7579 13.265 17.6425 13.8079 18.1879L14.5166 17.4824L15.2253 16.777C15.4573 17.01 15.4593 17.3881 15.2244 17.6234L14.5166 16.917ZM14.5166 17.4824L13.81 18.19C14.2876 18.667 15.0247 18.728 15.5694 18.3694L15.0195 17.5342L14.4696 16.6989C14.7041 16.5446 15.0187 16.5706 15.2232 16.7748L14.5166 17.4824ZM15.0195 17.5342L15.6515 18.3092L15.7149 18.2574L15.083 17.4824L14.4511 16.7074L14.3876 16.7592L15.0195 17.5342ZM15.083 17.4824L15.7905 18.1892L16.7065 17.2722L15.999 16.5654L15.2915 15.8587L14.3755 16.7757L15.083 17.4824ZM15.999 16.5654L15.2923 17.2729L16.2103 18.1899L16.917 17.4824L17.6237 16.7749L16.7058 15.8579L15.999 16.5654ZM16.917 17.4824L16.2792 18.2526L16.3417 18.3044L16.9795 17.5342L17.6173 16.764L17.5548 16.7122L16.917 17.4824ZM16.9795 17.5342L16.429 18.369C16.9743 18.7286 17.7117 18.6671 18.1893 18.1897L17.4824 17.4824L16.7755 16.7751C16.9798 16.5709 17.2951 16.5445 17.53 16.6994L16.9795 17.5342ZM17.4824 17.4824L18.1897 18.1894C18.6672 17.7117 18.7285 16.9742 18.3691 16.429L17.5342 16.9795L16.6993 17.5299C16.5445 17.2952 16.5708 16.9799 16.7752 16.7755L17.4824 17.4824ZM17.5342 16.9795L18.3044 16.3417L18.2526 16.2792L17.4824 16.917L16.7122 17.5548L16.764 17.6173L17.5342 16.9795ZM17.4824 16.917L18.1899 16.2103L17.2729 15.2923L16.5654 15.999L15.8579 16.7058L16.7749 17.6237L17.4824 16.917ZM16.5654 15.999L17.2722 16.7065L18.1892 15.7905L17.4824 15.083L16.7757 14.3755L15.8587 15.2915L16.5654 15.999ZM17.4824 15.083L18.1897 15.79C18.7364 15.243 18.7356 14.3563 18.19 13.81L17.4824 14.5166L16.7748 15.2232C16.5413 14.9893 16.5406 14.6107 16.7752 14.3761L17.4824 15.083Z" fill="white" mask="url(#path-3-outside-1_914_937)"/>
</svg>

<svg xmlns="http://www.w3.org/2000/svg" width="24" height="24" fill="none"><circle cx="10" cy="9" r="4" stroke="#515C6C" stroke-width="1.5"/><path stroke="#515C6C" stroke-linecap="round" stroke-width="1.5" d="M4 18c0-2.761 2.686-5 6-5 1.537 0 2.938.481 4 1.273"/><mask id="user-cross_svg__a" width="10" height="10" x="11" y="11" fill="#000" maskUnits="userSpaceOnUse"><path fill="#fff" d="M11 11h10v10H11z"/><path d="M16 12a4 4 0 1 1 0 8 4 4 0 0 1 0-8m1.482 2.517a.4.4 0 0 0-.502-.051l-.063.05-.918.918-.916-.917-.063-.051a.4.4 0 0 0-.503.05.4.4 0 0 0-.051.504l.05.063.918.916-.917.918a.4.4 0 0 0 .503.617l.063-.052.916-.917.918.917.063.052a.4.4 0 0 0 .554-.554l-.052-.063-.917-.918.917-.916a.4.4 0 0 0 0-.566"/></mask><path fill="#515C6C" d="M16 12a4 4 0 1 1 0 8 4 4 0 0 1 0-8m1.482 2.517a.4.4 0 0 0-.502-.051l-.063.05-.918.918-.916-.917-.063-.051a.4.4 0 0 0-.503.05.4.4 0 0 0-.051.504l.05.063.918.916-.917.918a.4.4 0 0 0 .503.617l.063-.052.916-.917.918.917.063.052a.4.4 0 0 0 .554-.554l-.052-.063-.917-.918.917-.916a.4.4 0 0 0 0-.566"/><path fill="#fff" d="m17.482 14.517.708-.707-.002-.002zm-.502-.051-.552-.834-.041.027-.038.03zm-.063.05-.63-.775-.04.032-.037.036zm-.918.918-.708.706.707.708.708-.707zm-.916-.917.707-.707-.039-.04-.043-.034zm-.063-.051.624-.781-.036-.03-.039-.025zm-.503.05-.707-.707zm-.051.504-.836.549.026.039.029.036zm.05.063-.78.625.034.043.04.04zm.918.916.707.707.707-.708-.708-.707zm-.917.918-.708-.707zm0 .565-.71.706.003.002zm.503.052.55.835.042-.028.04-.032zm.063-.052.632.775.04-.032.035-.036zm.916-.917.707-.707-.708-.707-.707.708zm.918.917-.707.708.033.033.036.03zm.063.052-.638.77.042.035.045.03zm.502-.052.707.708zm.052-.502.835-.551-.03-.045-.035-.042zm-.052-.063.77-.638-.03-.036-.032-.033zm-.917-.918-.706-.708-.708.707.707.708zm.917-.916.707.707zM16 12v1a3 3 0 0 1 3 3h2a5 5 0 0 0-5-5zm4 4h-1a3 3 0 0 1-3 3v2a5 5 0 0 0 5-5zm-4 4v-1a3 3 0 0 1-3-3h-2a5 5 0 0 0 5 5zm-4-4h1a3 3 0 0 1 3-3v-2a5 5 0 0 0-5 5zm5.482-1.483.706-.71a1.4 1.4 0 0 0-1.76-.175l.552.834.551.834a.6.6 0 0 1-.754-.075zm-.502-.051-.631-.776-.063.05.631.777.63.776.063-.051zm-.063.05-.707-.707-.918.917.707.708.707.707.918-.917zm-.918.918.707-.707-.915-.917-.708.707-.707.706.915.917zm-.916-.917.625-.781-.064-.051-.624.78-.625.782.063.05zm-.063-.051.549-.836a1.4 1.4 0 0 0-1.76.18l.708.707.707.707a.6.6 0 0 1-.754.077zm-.503.05-.708-.706a1.4 1.4 0 0 0-.179 1.759l.836-.55.835-.549c.151.23.131.545-.077.753zm-.051.504-.781.624.05.064.782-.625.78-.625-.05-.063zm.05.063-.706.707.917.916.707-.707.706-.708-.917-.915zm.918.916-.708-.707-.917.918.708.707.707.707.917-.918zm-.917.918-.708-.707a1.4 1.4 0 0 0-.001 1.978l.709-.706.708-.705a.6.6 0 0 1 0 .846zm0 .565-.707.708a1.4 1.4 0 0 0 1.76.18l-.55-.836-.55-.835a.6.6 0 0 1 .753.076zm.503.052.632.775.063-.052-.632-.775-.632-.775-.063.052zm.063-.052.707.707.916-.917-.707-.707-.708-.706-.915.917zm.916-.917-.707.708.918.917.707-.708.707-.707-.918-.917zm.918.917-.638.77.063.052.638-.77.637-.77-.062-.052zm.063.052-.551.835a1.4 1.4 0 0 0 1.76-.18l-.707-.707-.706-.707a.6.6 0 0 1 .754-.076zm.502-.052.708.707a1.4 1.4 0 0 0 .18-1.76l-.836.55-.835.55a.6.6 0 0 1 .076-.753zm.052-.502.77-.638-.051-.063-.77.638-.77.638.051.062zm-.052-.063.708-.707-.917-.918-.708.707-.707.707.917.918zm-.917-.918.707.707.917-.915-.707-.708-.706-.707-.917.915zm.917-.916.708.707a1.4 1.4 0 0 0 0-1.98l-.708.707-.707.706a.6.6 0 0 1 0-.847z" mask="url(#user-cross_svg__a)"/></svg>
